resources/svg/sort-low-to-high-o.svg

<svg xmlns="http://www.w3.org/2000/svg" viewBox="0 0 15 15" fill="none"><path d="M11.5 0.5H12C12 0.223858 11.7761 0 11.5 0V0.5ZM4.5 0.5L4.85355 0.146447C4.65829 -0.0488155 4.34171 -0.0488155 4.14645 0.146447L4.5 0.5ZM10 1H11.5V0H10V1ZM11 0.5V6.5H12V0.5H11ZM10 7H13V6H10V7ZM11.578 8H11V9H11.578V8ZM12.9743 11.6581L13.3665 10.4815L12.4179 10.1653L12.0257 11.3419L12.9743 11.6581ZM11 12H12.5V11H11V12ZM11.9743 14.6581L12.9743 11.6581L12.0257 11.3419L11.0257 14.3419L11.9743 14.6581ZM9 10C9 11.1046 9.89543 12 11 12V11C10.4477 11 10 10.5523 10 10H9ZM11 8C9.89543 8 9 8.89543 9 10H10C10 9.44772 10.4477 9 11 9V8ZM11.578 9C12.1823 9 12.609 9.59201 12.4179 10.1653L13.3665 10.4815C13.7735 9.26071 12.8648 8 11.578 8V9ZM4.14645 0.146447L1.14645 3.14645L1.85355 3.85355L4.85355 0.853553L4.14645 0.146447ZM4.14645 0.853553L7.14645 3.85355L7.85355 3.14645L4.85355 0.146447L4.14645 0.853553ZM4 0.5V15H5V0.5H4Z" fill="black"/></svg>

<svg xmlns="http://www.w3.org/2000/svg" viewBox="0 0 15 15" fill="none"><path d="M11.5.5h.5a.5.5 0 00-.5-.5v.5zm-7 0l.354-.354a.5.5 0 00-.708 0L4.5.5zM10 1h1.5V0H10v1zm1-.5v6h1v-6h-1zM10 7h3V6h-3v1zm1.578 1H11v1h.578V8zm1.396 3.658l.393-1.176-.95-.317-.391 1.177.948.316zM11 12h1.5v-1H11v1zm.974 2.658l1-3-.948-.316-1 3 .948.316zM9 10a2 2 0 002 2v-1a1 1 0 01-1-1H9zm2-2a2 2 0 00-2 2h1a1 1 0 011-1V8zm.578 1a.885.885 0 01.84 1.165l.949.317A1.885 1.885 0 0011.578 8v1zM4.146.146l-3 3 .708.708 3-3-.708-.708zm0 .708l3 3 .708-.708-3-3-.708.708zM4 .5V15h1V.5H4z" fill="currentColor"/></svg>
